X: 62
T:Happy Days of Youth
M:2/2
L:1/8
R:Reel
D:Frankie Gavin, "Up and Away"
Z:Robert Greenway
K:G
~e3d ~B3A|GABG AE~E2|~G3B dg (3efg|dBAc BGG2|!
gfed edBA|GABG AE~E2|~G3B dg (3efg|dBAc BGG2||!
fgag fd~d2|edef g3f|eB~B2 GB~B2|BAGA BAA2|!
fgag fd~d2|edef g3a|bgaf gfed|egfa g3f||!
<end>
<start>
